icons/credit-card-17.svg

<svg width="16" height="17" viewBox="0 0 16 17" fill="none" xmlns="http://www.w3.org/2000/svg">
<path d="M9.5 9.47888C9.5 9.16822 9.75185 8.91638 10.0625 8.91638H11.1875C11.4981 8.91638 11.75 9.16822 11.75 9.47888C11.75 9.78953 11.4981 10.0414 11.1875 10.0414H10.0625C9.75185 10.0414 9.5 9.78953 9.5 9.47888Z" fill="#272431"/>
<path fill-rule="evenodd" clip-rule="evenodd" d="M3.3125 3.66638C2.58763 3.66638 2 4.25401 2 4.97888V11.3539C2 12.0788 2.58763 12.6664 3.3125 12.6664H12.6875C13.4124 12.6664 14 12.0788 14 11.3539V4.97888C14 4.25401 13.4124 3.66638 12.6875 3.66638H3.3125ZM12.875 5.91638V4.97888C12.875 4.87533 12.7911 4.79138 12.6875 4.79138H3.3125C3.20895 4.79138 3.125 4.87533 3.125 4.97888V5.91638H12.875ZM3.125 7.04138H12.875V11.3539C12.875 11.4575 12.7911 11.5414 12.6875 11.5414H3.3125C3.20895 11.5414 3.125 11.4575 3.125 11.3539V7.04138Z" fill="#272431"/>
</svg>

<svg xmlns="http://www.w3.org/2000/svg" width="16" height="17" viewBox="0 0 16 17"><path d="M9.5 9.479c0-.31.252-.563.563-.563h1.124a.563.563 0 010 1.125h-1.124A.563.563 0 019.5 9.48z"/><path fill-rule="evenodd" d="M3.313 3.666C2.587 3.666 2 4.254 2 4.98v6.375c0 .725.588 1.312 1.313 1.312h9.374c.725 0 1.313-.587 1.313-1.312V4.979c0-.725-.588-1.313-1.313-1.313H3.313zm9.562 2.25V4.98a.187.187 0 00-.188-.188H3.313a.188.188 0 00-.188.188v.937h9.75zm-9.75 1.125h9.75v4.313a.187.187 0 01-.188.187H3.313a.187.187 0 01-.188-.187V7.04z"/></svg>
